src/Palette/64/status/weather-snow-scattered-day.svg

<?xml version="1.0" encoding="UTF-8" standalone="no"?>
<!-- Created with Inkscape (http://www.inkscape.org/) -->

<svg
   width="64"
   height="64"
   viewBox="0 0 64 64"
   version="1.1"
   id="svg5"
   inkscape:version="1.3 (0e150ed6c4, 2023-07-21)"
   sodipodi:docname="weather-snow-scattered-day.svg"
   xmlns:inkscape="http://www.inkscape.org/namespaces/inkscape"
   xmlns:sodipodi="http://sodipodi.sourceforge.net/DTD/sodipodi-0.dtd"
   xmlns="http://www.w3.org/2000/svg"
   xmlns:svg="http://www.w3.org/2000/svg">
  <sodipodi:namedview
     id="namedview7"
     pagecolor="#ffffff"
     bordercolor="#000000"
     borderopacity="0.25"
     inkscape:showpageshadow="2"
     inkscape:pageopacity="0.0"
     inkscape:pagecheckerboard="0"
     inkscape:deskcolor="#d1d1d1"
     inkscape:document-units="px"
     showgrid="false"
     inkscape:zoom="12.234375"
     inkscape:cx="31.959132"
     inkscape:cy="32"
     inkscape:window-width="1920"
     inkscape:window-height="984"
     inkscape:window-x="0"
     inkscape:window-y="29"
     inkscape:window-maximized="1"
     inkscape:current-layer="svg5"
     showguides="false" />
  <defs
     id="defs2" />
  <path
     d="m 42,1 -6,6 h -8 v 8 l -6,6 6,6 v 8 h 8 l 6,6 6,-6 h 8 v -8 l 6,-6 -6,-6 V 7 h -8 z"
     style="opacity:0.2;fill:#000000;stroke-width:1.13138"
     id="path1" />
  <path
     d="m 42,0 -6,6 h -8 v 8 l -6,6 6,6 v 8 h 8 l 6,6 6,-6 h 8 v -8 l 6,-6 -6,-6 V 6 h -8 z"
     style="fill:#ff8a47;fill-opacity:1;stroke-width:1.13138"
     id="path2" />
  <circle
     style="opacity:0.2;fill:#000000;stroke-width:3;stroke-linecap:round;stroke-linejoin:round"
     id="path9"
     cx="42"
     cy="21"
     r="12" />
  <path
     id="path3-5"
     style="opacity:0.2;fill:#ffffff;stroke-width:1.13138"
     d="m 42,0 -6,6 h -8 v 1 h 8 l 6,-6 6,6 h 8 V 6 H 48 Z M 28,14 22,20 22.5,20.5 28,15 Z m 28,0 v 1 L 61.5,20.5 62,20 Z" />
  <circle
     style="fill:#ffcc42;fill-opacity:1;stroke-width:3;stroke-linecap:round;stroke-linejoin:round"
     id="path10"
     cx="42"
     cy="20"
     r="12" />
  <path
     id="path4-3"
     style="opacity:0.2;fill:#ffffff;fill-opacity:1;stroke-width:2.4"
     d="M 42,8 A 12,12 0 0 0 30,20 12,12 0 0 0 30.035156,20.476562 12,12 0 0 1 42,9 12,12 0 0 1 53.976562,20.324218 12,12 0 0 0 54,20 12,12 0 0 0 42,8 Z" />
  <path
     d="m 30.000004,21 c -7.044305,0.0068 -12.986606,5.246317 -13.875002,12.234378 -0.697924,-0.15384 -1.410328,-0.2324 -2.125,-0.23436 C 8.4771527,33.000018 4,37.477171 4,43.00002 c 0,5.522849 4.4771527,10.000001 10.000002,10.000001 0.415444,-0.0028 0.830312,-0.0316 1.242188,-0.08592 v 0.07812 h 30.476568 v -0.0156 c 0.09364,0.0092 0.1874,0.0168 0.28124,0.0236 C 51.522847,53.000221 56,48.523069 56,43.00022 56,37.477371 51.522847,33.000218 45.999998,33.000218 c -0.710008,0.0084 -1.41712,0.092 -2.109376,0.25 C 43.008694,26.249853 37.055505,20.9998 30.000004,21.000016 Z"
     style="opacity:0.2;fill:#000000;stroke-width:4"
     id="path4" />
  <path
     d="m 30.000004,20 c -7.044305,0.0068 -12.986606,5.246317 -13.875002,12.234378 -0.697924,-0.15384 -1.410328,-0.2324 -2.125,-0.23436 C 8.4771527,32.000018 4,36.477171 4,42.000019 c 0,5.522849 4.4771527,10.000002 10.000002,10.000002 0.415444,-0.0028 0.830312,-0.0316 1.242188,-0.08592 v 0.07812 h 30.476568 v -0.0156 c 0.09364,0.0092 0.1874,0.0168 0.28124,0.0236 C 51.522847,52.000221 56,47.523068 56,42.000219 56,36.477371 51.522847,32.000218 45.999998,32.000218 c -0.710008,0.0084 -1.41712,0.092 -2.109376,0.25 C 43.008694,25.249837 37.055505,19.999784 30.000004,20 Z"
     style="fill:#f2f2f2;fill-opacity:1;stroke-width:4"
     id="path3" />
  <path
     id="path11"
     style="opacity:0.2;fill:#000000;fill-opacity:1;stroke-width:1.68325"
     d="m 16.250002,54.000001 -1.828125,1.773438 -2.421876,0.726562 0.589844,2.5 -0.589844,2.500001 2.421876,0.726562 1.828125,1.773438 1.828125,-1.773438 2.421876,-0.726562 -0.589844,-2.500001 0.589844,-2.5 -2.421876,-0.726562 z m 14.000002,0 -1.828124,1.773438 -2.421877,0.726562 0.589844,2.5 -0.589844,2.500001 2.421877,0.726562 1.828124,1.773438 1.828124,-1.773438 2.421877,-0.726562 -0.589844,-2.500001 0.589844,-2.5 -2.421877,-0.726562 z m 14.000002,0 -1.828124,1.773438 -2.421876,0.726562 0.589844,2.5 -0.589844,2.500001 2.421876,0.726562 1.828124,1.773438 1.828124,-1.773438 2.421877,-0.726562 -0.589844,-2.500001 0.589844,-2.5 -2.421877,-0.726562 z"
     sodipodi:nodetypes="ccccccccccccccccccccccccccccccccccccccc" />
  <path
     d="m 16.250002,53 -1.828125,1.773439 -2.421876,0.726562 0.589844,2.5 -0.589844,2.5 2.421876,0.726562 1.828125,1.773439 1.828125,-1.773439 2.421876,-0.726562 -0.589844,-2.5 0.589844,-2.5 -2.421876,-0.726562 z m 14.000002,0 -1.828124,1.773439 -2.421877,0.726562 0.589844,2.5 -0.589844,2.5 2.421877,0.726562 1.828124,1.773439 1.828124,-1.773439 2.421877,-0.726562 -0.589844,-2.5 0.589844,-2.5 -2.421877,-0.726562 z m 14.000002,0 -1.828124,1.773439 -2.421876,0.726562 0.589844,2.5 -0.589844,2.5 2.421876,0.726562 1.828124,1.773439 1.828124,-1.773439 2.421877,-0.726562 -0.589844,-2.5 0.589844,-2.5 -2.421877,-0.726562 z"
     style="fill:#edfafe;fill-opacity:1;stroke-width:1.68325"
     id="path12" />
</svg>

<?xml version="1.0" encoding="UTF-8" standalone="no"?>
<!-- Created with Inkscape (http://www.inkscape.org/) -->

<svg
   width="64"
   height="64"
   viewBox="0 0 64 64"
   version="1.1"
   id="svg5"
   inkscape:version="1.3 (0e150ed6c4, 2023-07-21)"
   sodipodi:docname="weather-snow-scattered-day.svg"
   xmlns:inkscape="http://www.inkscape.org/namespaces/inkscape"
   xmlns:sodipodi="http://sodipodi.sourceforge.net/DTD/sodipodi-0.dtd"
   xmlns="http://www.w3.org/2000/svg"
   xmlns:svg="http://www.w3.org/2000/svg">
  <sodipodi:namedview
     id="namedview7"
     pagecolor="#ffffff"
     bordercolor="#000000"
     borderopacity="0.25"
     inkscape:showpageshadow="2"
     inkscape:pageopacity="0.0"
     inkscape:pagecheckerboard="0"
     inkscape:deskcolor="#d1d1d1"
     inkscape:document-units="px"
     showgrid="false"
     inkscape:zoom="12.234375"
     inkscape:cx="31.959132"
     inkscape:cy="32"
     inkscape:window-width="1920"
     inkscape:window-height="984"
     inkscape:window-x="0"
     inkscape:window-y="29"
     inkscape:window-maximized="1"
     inkscape:current-layer="svg5"
     showguides="false" />
  <defs
     id="defs2" />
  <path
     d="m 42,1 -6,6 h -8 v 8 l -6,6 6,6 v 8 h 8 l 6,6 6,-6 h 8 v -8 l 6,-6 -6,-6 V 7 h -8 z"
     style="opacity:0.2;fill:#000000;stroke-width:1.13138"
     id="path1" />
  <path
     d="m 42,0 -6,6 h -8 v 8 l -6,6 6,6 v 8 h 8 l 6,6 6,-6 h 8 v -8 l 6,-6 -6,-6 V 6 h -8 z"
     style="fill:#ff8a47;fill-opacity:1;stroke-width:1.13138"
     id="path2" />
  <circle
     style="opacity:0.2;fill:#000000;stroke-width:3;stroke-linecap:round;stroke-linejoin:round"
     id="path9"
     cx="42"
     cy="21"
     r="12" />
  <path
     id="path3-5"
     style="opacity:0.2;fill:#ffffff;stroke-width:1.13138"
     d="m 42,0 -6,6 h -8 v 1 h 8 l 6,-6 6,6 h 8 V 6 H 48 Z M 28,14 22,20 22.5,20.5 28,15 Z m 28,0 v 1 L 61.5,20.5 62,20 Z" />
  <circle
     style="fill:#ffcc42;fill-opacity:1;stroke-width:3;stroke-linecap:round;stroke-linejoin:round"
     id="path10"
     cx="42"
     cy="20"
     r="12" />
  <path
     id="path4-3"
     style="opacity:0.2;fill:#ffffff;fill-opacity:1;stroke-width:2.4"
     d="M 42,8 A 12,12 0 0 0 30,20 12,12 0 0 0 30.035156,20.476562 12,12 0 0 1 42,9 12,12 0 0 1 53.976562,20.324218 12,12 0 0 0 54,20 12,12 0 0 0 42,8 Z" />
  <path
     id="path4"
     style="opacity:0.2;fill:#000000;stroke-width:4"
     d="M 30 21 C 22.955702 21.0068 17.013395 26.246321 16.125 33.234375 C 15.427077 33.080535 14.714671 33.00196 14 33 C 8.4771562 33 4 37.477157 4 43 C 4 48.522843 8.4771562 53 14 53 L 46 53 C 51.522843 53 56 48.522843 56 43 C 56 37.477157 51.522843 33 46 33 C 45.289993 33.0084 44.58288 33.092 43.890625 33.25 C 43.008698 26.249642 37.055494 20.999784 30 21 z " />
  <path
     id="path3"
     style="fill:#f2f2f2;fill-opacity:1;stroke-width:4"
     d="M 30 20 C 22.955702 20.0068 17.013395 25.246321 16.125 32.234375 C 15.427077 32.080535 14.714671 32.00196 14 32 C 8.4771562 32 4 36.477158 4 42 C 4 47.522843 8.4771562 52 14 52 L 46 52 C 51.522843 52 56 47.522843 56 42 C 56 36.477158 51.522843 32 46 32 C 45.289993 32.0084 44.58288 32.092 43.890625 32.25 C 43.008698 25.249626 37.055494 19.999784 30 20 z " />
  <path
     id="path11"
     style="opacity:0.2;fill:#000000;fill-opacity:1;stroke-width:1.68325"
     d="m 16.250002,54.000001 -1.828125,1.773438 -2.421876,0.726562 0.589844,2.5 -0.589844,2.500001 2.421876,0.726562 1.828125,1.773438 1.828125,-1.773438 2.421876,-0.726562 -0.589844,-2.500001 0.589844,-2.5 -2.421876,-0.726562 z m 14.000002,0 -1.828124,1.773438 -2.421877,0.726562 0.589844,2.5 -0.589844,2.500001 2.421877,0.726562 1.828124,1.773438 1.828124,-1.773438 2.421877,-0.726562 -0.589844,-2.500001 0.589844,-2.5 -2.421877,-0.726562 z m 14.000002,0 -1.828124,1.773438 -2.421876,0.726562 0.589844,2.5 -0.589844,2.500001 2.421876,0.726562 1.828124,1.773438 1.828124,-1.773438 2.421877,-0.726562 -0.589844,-2.500001 0.589844,-2.5 -2.421877,-0.726562 z"
     sodipodi:nodetypes="ccccccccccccccccccccccccccccccccccccccc" />
  <path
     d="m 16.250002,53 -1.828125,1.773439 -2.421876,0.726562 0.589844,2.5 -0.589844,2.5 2.421876,0.726562 1.828125,1.773439 1.828125,-1.773439 2.421876,-0.726562 -0.589844,-2.5 0.589844,-2.5 -2.421876,-0.726562 z m 14.000002,0 -1.828124,1.773439 -2.421877,0.726562 0.589844,2.5 -0.589844,2.5 2.421877,0.726562 1.828124,1.773439 1.828124,-1.773439 2.421877,-0.726562 -0.589844,-2.5 0.589844,-2.5 -2.421877,-0.726562 z m 14.000002,0 -1.828124,1.773439 -2.421876,0.726562 0.589844,2.5 -0.589844,2.5 2.421876,0.726562 1.828124,1.773439 1.828124,-1.773439 2.421877,-0.726562 -0.589844,-2.5 0.589844,-2.5 -2.421877,-0.726562 z"
     style="fill:#edfafe;fill-opacity:1;stroke-width:1.68325"
     id="path12" />
</svg>
